storage/app/icons/phosphoricons/fill/folder-simple-plus-fill.svg

<svg xmlns="http://www.w3.org/2000/svg" fill="currentColor" viewBox="0 0 256 256"><path d="M216 72h-85.33l-27.74-20.8a16.12 16.12 0 0 0-9.6-3.2H40a16 16 0 0 0-16 16v136a16 16 0 0 0 16 16h176.89A15.13 15.13 0 0 0 232 200.89V88a16 16 0 0 0-16-16m-64 80h-16v16a8 8 0 0 1-16 0v-16h-16a8 8 0 0 1 0-16h16v-16a8 8 0 0 1 16 0v16h16a8 8 0 0 1 0 16"/></svg>

<svg xmlns="http://www.w3.org/2000/svg" viewBox="0 0 256 256" fill="currentColor"><path d="M216,72H130.67L102.93,51.2a16.12,16.12,0,0,0-9.6-3.2H40A16,16,0,0,0,24,64V200a16,16,0,0,0,16,16H216.89A15.13,15.13,0,0,0,232,200.89V88A16,16,0,0,0,216,72Zm-64,80H136v16a8,8,0,0,1-16,0V152H104a8,8,0,0,1,0-16h16V120a8,8,0,0,1,16,0v16h16a8,8,0,0,1,0,16Z"/></svg>
